packages/foundations/assets/icons/functional/images/transportation/train_24_inverted.svg

<svg width="24" height="24" viewBox="0 0 24 24" fill="none" xmlns="http://www.w3.org/2000/svg">
<g clip-path="url(#clip0_2214_6784)">
<path fill-rule="evenodd" clip-rule="evenodd" d="M17.9265 17.8197C17.7208 18.4645 17.4161 19.0666 17.0126 19.6258C16.7077 20.0485 16.3581 20.3921 15.9247 20.6282C15.9715 20.7415 15.9972 20.8677 15.9972 21C15.9972 21.5128 15.6111 21.9355 15.1138 21.9933L8.99716 22C8.44488 22 7.99716 21.5523 7.99716 21C7.99716 20.8631 8.02468 20.7326 8.07448 20.6138C7.71043 20.4143 7.34613 20.0973 7.00168 19.6318C6.56421 19.0406 6.25357 18.437 6.06978 17.821C6.65411 18.2964 7.34584 18.7878 8.20631 19.3411C8.79417 19.7191 9.58915 20.004 11.9972 20.004C14.4052 20.004 15.1579 19.7462 15.7879 19.3412C16.6494 18.7874 17.3417 18.2955 17.9265 17.8197ZM13.0076 2C15.0169 2 16.4478 2.75606 17.4141 4.04074C18.2996 5.21799 18.8949 6.82632 18.9334 8.40309L18.9911 10.7016C19.0183 11.7873 18.9541 12.8721 18.7996 13.9448L18.2759 14.643C17.4651 15.6701 16.541 16.4795 14.7064 17.6588C14.6562 17.6911 14.1812 18.0033 12.9371 18.0033C11.6449 18.0033 12.457 18.0033 12.0013 18.0033C11.5456 18.0033 11.7047 18.0033 11.0882 18.0033C9.77675 18.0033 9.36328 17.7073 9.28801 17.6589C7.45362 16.4794 6.52937 15.6699 5.71855 14.6429L5.19024 13.9365C5.06654 13.0719 4.99743 11.9128 5.00314 10.7454C5.00694 9.9671 5.02645 9.18633 5.06165 8.40309C5.10103 6.82689 5.63203 5.30209 6.58079 4.04074C7.49879 2.8203 8.84965 2.07693 10.6994 2.00564L13.0076 2ZM14.0916 13.5743L13.5484 15.184C13.3739 15.708 13.6572 16.2742 14.1812 16.4488C14.6677 16.6108 15.1907 16.3781 15.4027 15.9245L15.9459 14.3148C16.1204 13.7908 15.8371 13.2246 15.3132 13.0501C14.8266 12.888 14.3036 13.1207 14.0916 13.5743ZM9.88835 13.5681C9.6733 13.116 9.14872 12.8869 8.66328 13.0522C8.17784 13.2176 7.90223 13.7193 8.00793 14.2087L8.59456 15.9307C8.80962 16.3828 9.3342 16.612 9.81964 16.4466C10.3051 16.2812 10.5807 15.7795 10.475 15.2901L9.88835 13.5681ZM11.9972 3.99998C11.2804 3.99998 10.5292 3.99998 9.20022 4.37428C7.87123 4.74856 6.97171 6.26192 7.18219 7.59936C7.36776 8.41961 7.48612 8.91525 7.53727 9.08628C7.76006 9.83112 8.36607 10.393 9.11574 10.5644C10.2287 10.7557 11.1896 10.8535 11.9986 10.8579C12.8076 10.8622 13.7149 10.7744 14.7206 10.5944C15.5445 10.4717 16.2231 9.8836 16.4618 9.08551C16.5363 8.83629 16.7549 7.96052 16.7866 7.77187C17.1152 6.31333 16.1449 4.75258 14.8004 4.37633C13.4559 4.00008 12.7141 3.99998 11.9972 3.99998Z" fill="#1A1C1F"/>
</g>
<defs>
<clipPath id="clip0_2214_6784">
<rect width="24" height="24" fill="white"/>
</clipPath>
</defs>
</svg>

<svg xmlns="http://www.w3.org/2000/svg" width="24" height="24" fill="none"><g clip-path="url(#a)"><path fill="#1A1C1F" fill-rule="evenodd" d="M17.927 17.82a6.4 6.4 0 0 1-.914 1.806c-.305.422-.655.766-1.088 1.002a1 1 0 0 1-.81 1.365L8.996 22a1 1 0 0 1-.923-1.386c-.364-.2-.728-.517-1.072-.982a5.9 5.9 0 0 1-.932-1.811c.584.475 1.276.967 2.136 1.52.588.378 1.383.663 3.791.663s3.16-.258 3.79-.663a24 24 0 0 0 2.14-1.521M13.007 2c2.01 0 3.44.756 4.407 2.04.886 1.178 1.48 2.786 1.52 4.363l.057 2.299a19.4 19.4 0 0 1-.191 3.243l-.524.698c-.81 1.027-1.735 1.837-3.57 3.016-.05.032-.525.344-1.769.344h-1.849c-1.311 0-1.725-.296-1.8-.344-1.834-1.18-2.759-1.99-3.57-3.016l-.528-.707c-.123-.864-.193-2.023-.187-3.19q.005-1.169.059-2.343A7.57 7.57 0 0 1 6.58 4.041c.918-1.22 2.269-1.964 4.118-2.035zm1.085 11.574-.544 1.61a1 1 0 0 0 1.855.74l.543-1.61a1 1 0 0 0-1.854-.74m-4.204-.006a1 1 0 0 0-1.88.64l.587 1.723a1 1 0 0 0 1.88-.64zM11.998 4c-.718 0-1.469 0-2.798.374C7.871 4.75 6.972 6.262 7.182 7.6q.279 1.23.355 1.487a2.15 2.15 0 0 0 1.579 1.478q1.67.288 2.883.294t2.722-.264a2.15 2.15 0 0 0 1.74-1.508c.075-.25.294-1.125.326-1.314.328-1.459-.642-3.02-1.987-3.396C13.456 4 12.714 4 11.997 4" clip-rule="evenodd"/></g><defs><clipPath id="a"><path fill="#fff" d="M0 0h24v24H0z"/></clipPath></defs></svg>
